assets/icons/navbar_post_filled.svg

<svg width="33" height="29" viewBox="0 0 33 29" fill="none" xmlns="http://www.w3.org/2000/svg">
<path fill-rule="evenodd" clip-rule="evenodd" d="M24.7919 0.926591C22.6949 0.679905 20.0089 0.679918 16.5893 0.679932H16.4107C12.9911 0.679918 10.3052 0.679905 8.20813 0.926591C6.05921 1.1794 4.35422 1.70804 3.01459 2.8802C1.67498 4.05237 1.07082 5.54424 0.781897 7.42454C0.499969 9.25946 0.499985 11.6097 0.5 14.6018V14.7581C0.499985 17.7502 0.499969 20.1005 0.781897 21.9353C1.07082 23.8156 1.67498 25.3075 3.01459 26.4797C4.35422 27.6519 6.05921 28.1804 8.20813 28.4333C10.3052 28.6799 12.9911 28.6799 16.4107 28.6799H16.5893C20.0089 28.6799 22.6949 28.6799 24.7919 28.4333C26.9407 28.1804 28.6458 27.6519 29.9854 26.4797C31.3251 25.3075 31.9292 23.8156 32.2181 21.9353C32.5 20.1005 32.5 17.7502 32.5 14.7581V14.6018C32.5 11.6096 32.5 9.25946 32.2181 7.42454C31.9292 5.54424 31.3251 4.05237 29.9854 2.8802C28.6458 1.70804 26.9407 1.1794 24.7919 0.926591Z" fill="url(#paint0_linear_605_5734)"/>
<path d="M16.8333 9.67993V20.3466M22.1667 15.0133H11.5" stroke="#121212" stroke-width="1.5" stroke-linecap="round" stroke-linejoin="round"/>
<defs>
<linearGradient id="paint0_linear_605_5734" x1="-5.76087" y1="28.7599" x2="50.1926" y2="-2.21902" gradientUnits="userSpaceOnUse">
<stop stop-color="#FF97CD"/>
<stop offset="1" stop-color="#FF349D"/>
</linearGradient>
</defs>
</svg>

<svg xmlns="http://www.w3.org/2000/svg" width="33" height="29" fill="none" viewBox="0 0 33 29"><path fill="url(#a)" fill-rule="evenodd" d="M24.792.927C22.695.68 20.009.68 16.589.68h-.178c-3.42 0-6.106 0-8.203.247-2.149.252-3.854.781-5.193 1.953C1.675 4.052 1.07 5.544.782 7.425.5 9.259.5 11.61.5 14.602v.156c0 2.992 0 5.343.282 7.177.289 1.88.893 3.373 2.233 4.545s3.044 1.7 5.193 1.953c2.097.247 4.783.247 8.203.247h.178c3.42 0 6.106 0 8.203-.247 2.149-.253 3.854-.781 5.193-1.953 1.34-1.172 1.944-2.664 2.233-4.545.282-1.834.282-4.185.282-7.177v-.156c0-2.992 0-5.343-.282-7.177-.289-1.88-.893-3.373-2.233-4.545s-3.044-1.7-5.193-1.953" clip-rule="evenodd"/><path stroke="#121212" stroke-linecap="round" stroke-linejoin="round" stroke-width="1.5" d="M16.833 9.68v10.667m5.334-5.334H11.5"/><defs><linearGradient id="a" x1="-5.761" x2="50.193" y1="28.76" y2="-2.219" gradientUnits="userSpaceOnUse"><stop stop-color="#ff97cd"/><stop offset="1" stop-color="#ff349d"/></linearGradient></defs></svg>
